X: 228
T:Liverpool Hornpipe. JaW.227
M:C|
Q:180
S:James Winder Ms, Lancashire, 1835-41
R:Hornpipe
O:England
A:Wyresdale,Lancashire
H:1/8
Z:vmp.Chris Partington, Aug 2004
K:D
FEFA dfaf|gefd dcBA|GBGB FAFA|EFGA GFED|!
FEFA efaf|gefd dcBA|fafd egec|d2d2"cr"d4:|!
|:dffd ceec|BddB BAGF|GBGB FAFA|EFGA GFED|!
FEFA dfaf|gefd dcBA|fafd egec|d2d2"cr"d4:|]
